X: 34799
T: Road To Skye, The
R: jig
M: 6/8
K: Amajor
|:A=GF ECE|Ace f2e|acc cBc|dFF F2E|
A=GF ECE|Ace f2e|aec BAB|cAA A3:|
|:Ace Ace|Ace dcB|Ace fga|gee efg|
a3 g3|~f3 e2g|aec BAB|cAA A3:|

